app/src/assets/icons/website/gift.svg

<svg xmlns="http://www.w3.org/2000/svg" viewBox="0 0 24 24" width="512" height="512"><path d="M22 7h-1.106A4.192 4.192 0 0021 6a3.718 3.718 0 00-4-4c-2.164 0-3.969 2.271-5 3.928C10.969 4.271 9.164 2 7 2a3.718 3.718 0 00-4 4 4.192 4.192 0 00.106 1H2a1 1 0 00-1 1v5a1 1 0 001 1h1v7a1 1 0 001 1h16a1 1 0 001-1v-7h1a1 1 0 001-1V8a1 1 0 00-1-1zM7 4c1.113 0 2.419 1.583 3.308 3H7.556C5 7 5 6.6 5 6c0-1.793 1.142-2 2-2zm4 16H5v-6h6zm0-8H3V9h8zm6-8c.858 0 2 .207 2 2 0 .6 0 1-2.556 1h-2.752c.889-1.417 2.195-3 3.308-3zm2 16h-6v-6h6zm2-8h-8V9h8z"/></svg>

<?xml version="1.0"?>
<svg xmlns="http://www.w3.org/2000/svg" id="Icons" viewBox="0 0 24 24" width="512" height="512"><path d="M22,7H20.894A4.192,4.192,0,0,0,21,6a3.718,3.718,0,0,0-4-4c-2.164,0-3.969,2.271-5,3.928C10.969,4.271,9.164,2,7,2A3.718,3.718,0,0,0,3,6a4.192,4.192,0,0,0,.106,1H2A1,1,0,0,0,1,8v5a1,1,0,0,0,1,1H3v7a1,1,0,0,0,1,1H20a1,1,0,0,0,1-1V14h1a1,1,0,0,0,1-1V8A1,1,0,0,0,22,7ZM7,4c1.113,0,2.419,1.583,3.308,3H7.556C5,7,5,6.6,5,6,5,4.207,6.142,4,7,4Zm4,16H5V14h6Zm0-8H3V9h8Zm6-8c.858,0,2,.207,2,2,0,.6,0,1-2.556,1H13.692C14.581,5.583,15.887,4,17,4Zm2,16H13V14h6Zm2-8H13V9h8Z"/></svg>
